Newaita-dark/actions/22/system-save-session.svg

<svg height="22" viewBox="0 0 22 22" width="22" xmlns="http://www.w3.org/2000/svg"><g fill="#e0e0e0"><path d="m5.457031 3.808594v4.550781c0 .503906.40625.910156.910157.910156h8.1875c.503906 0 .910156-.40625.910156-.910156v-4.550781h-.910156v4.09375c0 .253906-.203126.457031-.457032.457031h-7.277344c-.25 0-.453124-.203125-.453124-.457031v-4.09375zm0 0"/><path d="m5.457031 18.363281v-5.457031c0-.503906.40625-.910156.910157-.910156h9.097656c.503906 0 .90625.40625.90625.910156v5.457031h-.90625v-5.003906c0-.25-.203125-.453125-.457032-.453125h-8.1875c-.25 0-.453124.203125-.453124.453125v5.003906zm0 0"/><path d="m11.824219 4.71875h1.59375c.125 0 .226562.101562.226562.226562v2.277344c0 .125-.101562.226563-.226562.226563h-1.59375c-.125 0-.226563-.101563-.226563-.226563v-2.277344c0-.125.101563-.226562.226563-.226562zm0 0"/><path d="m3.636719 1.992188c-1.007813 0-1.816407.808593-1.816407 1.816406v14.554687c0 1.007813.808594 1.820313 1.816407 1.820313h14.554687c1.007813 0 1.820313-.8125 1.820313-1.820313v-11.371093h-.003907v-.453126c0-.238281-.097656-.46875-.265624-.640624l-3.640626-3.636719c-.167968-.171875-.398437-.265625-.636718-.265625h-.457032v-.003906zm11.371093 1.8125h.082032l3.105468 3.109374v.078126h-.003906v10.460937c0 .503906-.40625.910156-.910156.910156h-12.734375c-.503906 0-.910156-.40625-.910156-.910156v-12.734375c0-.503906.40625-.910156.910156-.910156h10.460937zm0 0"/></g></svg>

<svg xmlns="http://www.w3.org/2000/svg" xmlns:xlink="http://www.w3.org/1999/xlink" width="22px" height="22px" viewBox="0 0 22 22" version="1.1">
<g id="surface1">
     <defs>
  <style id="current-color-scheme" type="text/css">
   .ColorScheme-Text { color:#eeeeee; } .ColorScheme-Highlight { color:#424242; }
  </style>
 </defs>
<path style="fill:currentColor" class="ColorScheme-Text" d="M 5.457031 3.808594 L 5.457031 8.359375 C 5.457031 8.863281 5.863281 9.269531 6.367188 9.269531 L 14.554688 9.269531 C 15.058594 9.269531 15.464844 8.863281 15.464844 8.359375 L 15.464844 3.808594 L 14.554688 3.808594 L 14.554688 7.902344 C 14.554688 8.15625 14.351562 8.359375 14.097656 8.359375 L 6.820312 8.359375 C 6.570312 8.359375 6.367188 8.15625 6.367188 7.902344 L 6.367188 3.808594 Z M 5.457031 3.808594 "/>
     <defs>
  <style id="current-color-scheme" type="text/css">
   .ColorScheme-Text { color:#eeeeee; } .ColorScheme-Highlight { color:#424242; }
  </style>
 </defs>
<path style="fill:currentColor" class="ColorScheme-Text" d="M 5.457031 18.363281 L 5.457031 12.90625 C 5.457031 12.402344 5.863281 11.996094 6.367188 11.996094 L 15.464844 11.996094 C 15.96875 11.996094 16.371094 12.402344 16.371094 12.90625 L 16.371094 18.363281 L 15.464844 18.363281 L 15.464844 13.359375 C 15.464844 13.109375 15.261719 12.90625 15.007812 12.90625 L 6.820312 12.90625 C 6.570312 12.90625 6.367188 13.109375 6.367188 13.359375 L 6.367188 18.363281 Z M 5.457031 18.363281 "/>
     <defs>
  <style id="current-color-scheme" type="text/css">
   .ColorScheme-Text { color:#eeeeee; } .ColorScheme-Highlight { color:#424242; }
  </style>
 </defs>
<path style="fill:currentColor" class="ColorScheme-Text" d="M 11.824219 4.71875 L 13.417969 4.71875 C 13.542969 4.71875 13.644531 4.820312 13.644531 4.945312 L 13.644531 7.222656 C 13.644531 7.347656 13.542969 7.449219 13.417969 7.449219 L 11.824219 7.449219 C 11.699219 7.449219 11.597656 7.347656 11.597656 7.222656 L 11.597656 4.945312 C 11.597656 4.820312 11.699219 4.71875 11.824219 4.71875 Z M 11.824219 4.71875 "/>
     <defs>
  <style id="current-color-scheme" type="text/css">
   .ColorScheme-Text { color:#eeeeee; } .ColorScheme-Highlight { color:#424242; }
  </style>
 </defs>
<path style="fill:currentColor" class="ColorScheme-Text" d="M 3.636719 1.992188 C 2.628906 1.992188 1.820312 2.800781 1.820312 3.808594 L 1.820312 18.363281 C 1.820312 19.371094 2.628906 20.183594 3.636719 20.183594 L 18.191406 20.183594 C 19.199219 20.183594 20.011719 19.371094 20.011719 18.363281 L 20.011719 6.992188 L 20.007812 6.992188 L 20.007812 6.539062 C 20.007812 6.300781 19.910156 6.070312 19.742188 5.898438 L 16.101562 2.261719 C 15.933594 2.089844 15.703125 1.996094 15.464844 1.996094 L 15.007812 1.996094 L 15.007812 1.992188 Z M 15.007812 3.804688 L 15.089844 3.804688 L 18.195312 6.914062 L 18.195312 6.992188 L 18.191406 6.992188 L 18.191406 17.453125 C 18.191406 17.957031 17.785156 18.363281 17.28125 18.363281 L 4.546875 18.363281 C 4.042969 18.363281 3.636719 17.957031 3.636719 17.453125 L 3.636719 4.71875 C 3.636719 4.214844 4.042969 3.808594 4.546875 3.808594 L 15.007812 3.808594 Z M 15.007812 3.804688 "/>
</g>
</svg>
